UI/Travel-Transport-Tracking/SVG/arrival-airport_outline_24px.svg

<svg width="24" height="24" viewBox="0 0 24 24" fill="none" xmlns="http://www.w3.org/2000/svg">
<path d="M22 22H12V20H22V22ZM18.55 16.9L17.18 16.19L17.6 15.34L16.89 13.86L12.53 11.93L11.74 6.93L11.17 8.63L10.46 10.79L8.4 9.79L4.63 8L4 7.67V9.36L2 8.36V2L4.53 3.27L5.53 6.18L9.27 8L10.86 3.26L13.39 4.52L14.33 10.52L17.77 12.05C18.1252 12.2235 18.421 12.4985 18.62 12.84L19.86 15.48C19.9777 15.6661 20.0307 15.8858 20.0108 16.105C19.9909 16.3243 19.8992 16.5309 19.7499 16.6927C19.6006 16.8545 19.4021 16.9626 19.1852 17.0001C18.9682 17.0375 18.7449 17.0024 18.55 16.9ZM11.8 15.6L8 13.7L5.79 16.55L7.06 17.18L11.8 15.6Z" fill="#0F1621"/>
</svg>

<svg xmlns="http://www.w3.org/2000/svg" width="24" height="24" viewBox="0 0 24 24"><rect width="24" height="24" style="fill:none"/><path d="M22,22H12V20H22Zm-3.45-5.1-1.37-.71.42-.85-.71-1.48-4.36-1.93-.79-5-.57,1.7-.71,2.16-2.06-1L4.63,8,4,7.67,4,9.36l-2-1V2L4.53,3.27l1,2.91L9.27,8l1.59-4.74,2.53,1.26.94,6,3.44,1.53a2,2,0,0,1,.85.79l1.24,2.64A1,1,0,0,1,18.55,16.9ZM11.8,15.6,8,13.7,5.79,16.55l1.27.63Z"/></svg>
